icons/src/svg/document_pdf.svg

<svg width="32" height="32" viewBox="0 0 32 32" fill="none" xmlns="http://www.w3.org/2000/svg">
<path fill-rule="evenodd" clip-rule="evenodd" d="M10 4C10 2.89543 10.8954 2 12 2H19.5858C20.1162 2 20.6249 2.21071 21 2.58579L29.4142 11C29.7893 11.3751 30 11.8838 30 12.4142V28C30 29.1046 29.1046 30 28 30H25C24.4477 30 24 29.5523 24 29C24 28.4477 24.4477 28 25 28H28V13H21C19.8954 13 19 12.1046 19 11V4H12V18C12 18.5523 11.5523 19 11 19C10.4477 19 10 18.5523 10 18V4ZM21 5.41421V11H26.5858L21 5.41421Z" fill="#0D0F13"/>
<path d="M5.984 21.48C6.496 21.48 6.956 21.596 7.364 21.828C7.772 22.06 8.088 22.384 8.312 22.8C8.544 23.216 8.66 23.688 8.66 24.216C8.66 24.744 8.544 25.216 8.312 25.632C8.088 26.048 7.772 26.372 7.364 26.604C6.956 26.836 6.496 26.952 5.984 26.952H3.692V30H2V21.48H5.984ZM6.956 24.096C6.956 23.672 6.832 23.352 6.584 23.136C6.336 22.912 6.012 22.8 5.612 22.8H3.692V25.632H5.612C6.004 25.632 6.324 25.52 6.572 25.296C6.828 25.072 6.956 24.752 6.956 24.336V24.096Z" fill="#0D0F13"/>
<path d="M12.8833 21.48C13.6833 21.48 14.3633 21.656 14.9233 22.008C15.4913 22.36 15.9153 22.856 16.1953 23.496C16.4833 24.136 16.6273 24.884 16.6273 25.74C16.6273 26.588 16.4833 27.332 16.1953 27.972C15.9153 28.612 15.4913 29.112 14.9233 29.472C14.3633 29.824 13.6833 30 12.8833 30H9.66734V21.48H12.8833ZM14.8513 25.38C14.8513 24.58 14.6833 23.952 14.3473 23.496C14.0113 23.032 13.5233 22.8 12.8833 22.8H11.3593V28.68H12.8833C13.5233 28.68 14.0113 28.452 14.3473 27.996C14.6833 27.532 14.8513 26.9 14.8513 26.1V25.38Z" fill="#0D0F13"/>
<path d="M19.4134 22.8V25.068H23.3014V26.4H19.4134V30H17.7214V21.48H23.5294V22.8H19.4134Z" fill="#0D0F13"/>
</svg>

<svg xmlns="http://www.w3.org/2000/svg" viewBox="0 0 32 32">
    <path d="M10 4c0-1.1.9-2 2-2h7.59c.53 0 1.04.21 1.41.59L29.41 11c.38.38.59.88.59 1.41V28a2 2 0 0 1-2 2h-3c-.55 0-1-.45-1-1s.45-1 1-1h3V13h-7a2 2 0 0 1-2-2V4h-7v14c0 .55-.45 1-1 1s-1-.45-1-1V4Zm11 1.41V11h5.59L21 5.41ZM5.98 21.48c.51 0 .97.12 1.38.35.41.23.72.56.95.97.23.42.35.89.35 1.42s-.12 1-.35 1.42c-.22.42-.54.74-.95.97s-.87.35-1.38.35H3.69v3.05H2v-8.52h3.98Zm.97 2.62c0-.42-.12-.74-.37-.96a1.41 1.41 0 0 0-.97-.34H3.69v2.83h1.92c.39 0 .71-.11.96-.34.26-.22.38-.54.38-.96v-.24Zm5.93-2.62c.8 0 1.48.18 2.04.53.57.35.99.85 1.27 1.49.29.64.43 1.39.43 2.24s-.14 1.59-.43 2.23c-.28.64-.7 1.14-1.27 1.5-.56.35-1.24.53-2.04.53H9.66v-8.52h3.22Zm1.97 3.9c0-.8-.17-1.43-.5-1.88a1.7 1.7 0 0 0-1.46-.7h-1.52v5.88h1.52a1.7 1.7 0 0 0 1.46-.68c.34-.46.5-1.1.5-1.9v-.72Zm4.56-2.58v2.27h3.89v1.33h-3.89V30h-1.69v-8.52h5.81v1.32h-4.12Z" fill="currentColor" fill-rule="evenodd"/>
</svg>
